X: 39836
T: Third Attempt, The
R: jig
M: 6/8
K: Amajor
K:F#m
|:~F3 cFA|~f3 ecB|~A3 ABc|cGe cAG|~F3 cFA|
~f3 ecB|1 ABe ecA|~B3 BAG:|2 ABe edc|dfa age||
~f3 age|~f3 fec|~B3 BAB|cea gec|
~f3 age|fag fec|~B3 BAB|cz2 bag|
~f3 agf-|fag fec|~B3 BAB|~c3 cAG|
~F3 cFA|~f3 ecA|~B3 BAB|~c3 cAG|

